src/images/global/icons/action/conversation-line.svg

<?xml version="1.0" encoding="UTF-8"?>
<svg width="48px" height="48px" viewBox="0 0 48 48" version="1.1" xmlns="http://www.w3.org/2000/svg" xmlns:xlink="http://www.w3.org/1999/xlink">
    <!-- Generator: Sketch 46.2 (44496) - http://www.bohemiancoding.com/sketch -->
    <title>icon/Action/conversation-line</title>
    <desc>Created with Sketch.</desc>
    <defs>
        <path d="M19.3129438,14.5306386 C19.3129438,14.298327 19.3768037,14.0788341 19.4859785,13.8986382 L19.7750318,13.421548 L23.064273,13.421548 C24.0305547,13.3609499 24.9986064,12.3532647 24.9986064,11.5624511 L24.9986064,2.50075645 C24.9986064,1.56339126 24.3898688,0.953941043 23.7246501,0.953941043 L2.92506238,0.953941043 C1.85489059,0.953941043 1.00139361,1.72922752 1.00139361,2.65705372 L1.00139361,11.5624511 C1.00139361,12.6413214 1.81267335,13.421548 2.92506238,13.421548 L13.5066192,13.421548 L13.7135576,13.5171385 C13.8105902,13.5619605 13.9161947,13.6244635 14.0189879,13.6976052 L14.1176745,13.7778159 L19.3129438,18.5880697 L19.3129438,14.5306386 Z M23.7246501,0 C24.8431233,0 26,0.935488246 26,2.50075645 L26,11.5624511 C26,12.7629561 24.7121828,14.2850286 23.1129071,14.3744457 C23.1002145,14.3751761 20.3532833,14.3754891 20.3532833,14.3754891 C20.3364683,14.4032428 20.3143375,14.4580199 20.3143375,14.5306386 L20.3143375,19.3739762 C20.3143375,19.6250117 20.1584455,19.8517367 19.9182612,19.9500224 C19.8361386,19.9837234 19.7494597,20 19.6635401,20 C19.498427,20 19.335809,19.9394844 19.2120284,19.824922 L13.4197258,14.4618804 C13.3584322,14.4182674 13.3069021,14.3894703 13.276635,14.3754891 L2.92506238,14.3754891 C1.25744161,14.3754891 0,13.1661154 0,11.5624511 L0,2.65705372 C0,1.19194933 1.31222618,0 2.92506238,0 L23.7246501,0 Z M13,5.7388646 C13.8509509,5.7388646 14.5408026,6.4023455 14.5408026,7.2207673 C14.5408026,8.03918909 13.8509509,8.70266999 13,8.70266999 C12.1490491,8.70266999 11.4591974,8.03918909 11.4591974,7.2207673 C11.4591974,6.4023455 12.1490491,5.7388646 13,5.7388646 M6.55776789,5.73876026 C7.40882728,5.73876026 8.09867899,6.40224117 8.09867899,7.2207673 C8.09867899,8.03929343 7.40882728,8.70277433 6.55776789,8.70277433 C5.7067085,8.70277433 5.01685679,8.03929343 5.01685679,7.2207673 C5.01685679,6.40224117 5.7067085,5.73876026 6.55776789,5.73876026 M19.4423406,5.7388646 C20.2932915,5.7388646 20.9831432,6.4023455 20.9831432,7.2207673 C20.9831432,8.03918909 20.2932915,8.70266999 19.4423406,8.70266999 C18.5913897,8.70266999 17.901538,8.03918909 17.901538,7.2207673 C17.901538,6.4023455 18.5913897,5.7388646 19.4423406,5.7388646" id="path-1"></path>
    </defs>
    <g id="Symbols" stroke="none" stroke-width="1" fill="none" fill-rule="evenodd">
        <g id="icon/Action/conversation-line">
            <g id="Icon" transform="translate(11.000000, 14.000000)">
                <mask id="mask-2" fill="white">
                    <use xlink:href="#path-1"></use>
                </mask>
                <use id="Mask" fill="#384048" fill-rule="nonzero" xlink:href="#path-1"></use>
                <g id="Color/Grayscale/Night-Sky" mask="url(#mask-2)" fill="#111111">
                    <g transform="translate(-11.000000, -14.000000)" id="Swatch">
                        <rect x="0" y="0" width="48" height="48"></rect>
                    </g>
                </g>
            </g>
        </g>
    </g>
</svg>

<?xml version="1.0" encoding="utf-8"?>
<!-- Generator: Adobe Illustrator 21.0.2, SVG Export Plug-In . SVG Version: 6.00 Build 0)  -->
<svg version="1.1" id="action-conversation-line-Layer_1" xmlns="http://www.w3.org/2000/svg" xmlns:xlink="http://www.w3.org/1999/xlink" x="0px" y="0px"
	 viewBox="0 0 48 48" style="enable-background:new 0 0 48 48;" xml:space="preserve">
<title>icon/Action/conversation-line</title>
<g transform="translate(11 14)">
	<g>
		<path id="action-conversation-line-a_1_" style="fill:#384048;" d="M19.3,14.5c0-0.2,0.1-0.5,0.2-0.6l0.3-0.5h3.3c1-0.1,1.9-1.1,1.9-1.9V2.5
			C25,1.6,24.4,1,23.7,1H2.9C1.9,1,1,1.7,1,2.7v8.9c0,1.1,0.8,1.9,1.9,1.9h10.6l0.2,0.1c0.1,0,0.2,0.1,0.3,0.2l0.1,0.1l5.2,4.8V14.5
			L19.3,14.5z M23.7,0C24.8,0,26,0.9,26,2.5v9.1c0,1.2-1.3,2.7-2.9,2.8l-2.8,0c0,0,0,0.1,0,0.2v4.8c0,0.3-0.2,0.5-0.4,0.6
			c-0.2,0.1-0.5,0-0.7-0.1l-5.8-5.4c0,0-0.1-0.1-0.1-0.1H2.9c-1.7,0-2.9-1.2-2.9-2.8V2.7C0,1.2,1.3,0,2.9,0C2.9,0,23.7,0,23.7,0z
			 M13,5.7c0.9,0,1.5,0.7,1.5,1.5c0,0.8-0.7,1.5-1.5,1.5S11.5,8,11.5,7.2C11.5,6.4,12.1,5.7,13,5.7 M6.6,5.7c0.8,0,1.5,0.7,1.5,1.5
			c0,0.8-0.7,1.5-1.5,1.5C5.7,8.7,5,8,5,7.2C5,6.4,5.7,5.7,6.6,5.7 M19.4,5.7c0.9,0,1.5,0.7,1.5,1.5c0,0.8-0.7,1.5-1.5,1.5
			c-0.9,0-1.5-0.7-1.5-1.5C17.9,6.4,18.6,5.7,19.4,5.7"/>
	</g>
	<defs>
		<filter id="action-conversation-line-Adobe_OpacityMaskFilter" filterUnits="userSpaceOnUse" x="-11" y="-14" width="48" height="48">
			<feColorMatrix  type="matrix" values="1 0 0 0 0  0 1 0 0 0  0 0 1 0 0  0 0 0 1 0"/>
		</filter>
	</defs>
	<mask maskUnits="userSpaceOnUse" x="-11" y="-14" width="48" height="48" id="action-conversation-line-b">
		<g style="filter:url(#action-conversation-line-Adobe_OpacityMaskFilter);">
			<path id="action-conversation-line-a" style="fill:#FFFFFF;" d="M19.3,14.5c0-0.2,0.1-0.5,0.2-0.6l0.3-0.5h3.3c1-0.1,1.9-1.1,1.9-1.9V2.5
				C25,1.6,24.4,1,23.7,1H2.9C1.9,1,1,1.7,1,2.7v8.9c0,1.1,0.8,1.9,1.9,1.9h10.6l0.2,0.1c0.1,0,0.2,0.1,0.3,0.2l0.1,0.1l5.2,4.8
				V14.5L19.3,14.5z M23.7,0C24.8,0,26,0.9,26,2.5v9.1c0,1.2-1.3,2.7-2.9,2.8l-2.8,0c0,0,0,0.1,0,0.2v4.8c0,0.3-0.2,0.5-0.4,0.6
				c-0.2,0.1-0.5,0-0.7-0.1l-5.8-5.4c0,0-0.1-0.1-0.1-0.1H2.9c-1.7,0-2.9-1.2-2.9-2.8V2.7C0,1.2,1.3,0,2.9,0C2.9,0,23.7,0,23.7,0z
				 M13,5.7c0.9,0,1.5,0.7,1.5,1.5c0,0.8-0.7,1.5-1.5,1.5S11.5,8,11.5,7.2C11.5,6.4,12.1,5.7,13,5.7 M6.6,5.7c0.8,0,1.5,0.7,1.5,1.5
				c0,0.8-0.7,1.5-1.5,1.5C5.7,8.7,5,8,5,7.2C5,6.4,5.7,5.7,6.6,5.7 M19.4,5.7c0.9,0,1.5,0.7,1.5,1.5c0,0.8-0.7,1.5-1.5,1.5
				c-0.9,0-1.5-0.7-1.5-1.5C17.9,6.4,18.6,5.7,19.4,5.7"/>
		</g>
	</mask>
	<g style="mask:url(#action-conversation-line-b);">
		<path style="fill:#111111;" d="M-11-14h48v48h-48V-14z"/>
	</g>
</g>
</svg>
